static/img/general/features-icon-2.svg

<svg width="43" height="45" viewBox="0 0 43 45" fill="none" xmlns="http://www.w3.org/2000/svg">
<path d="M16.625 2.25H12.875C12.425 2.25 12.125 2.54997 12.125 2.99997C12.125 3.44997 12.425 3.74994 12.875 3.74994H16.625C17.075 3.74994 17.375 3.44997 17.375 2.99997C17.3751 2.54997 17.075 2.25 16.625 2.25Z" fill="#E20E17"/>
<path d="M10.6252 2.25H9.87522C9.42522 2.25 9.12524 2.54997 9.12524 2.99997C9.12524 3.44997 9.42522 3.74994 9.87522 3.74994H10.6252C11.0752 3.74994 11.3752 3.44997 11.3752 2.99997C11.3752 2.54997 11.0752 2.25 10.6252 2.25Z" fill="#E20E17"/>
<path d="M39.875 9.74997H26.375V4.5V2.99997C26.375 1.35 25.025 0 23.375 0H3.87503C2.22497 0 0.874971 1.35 0.874971 2.99997V4.5V6.75C0.424971 6.75 0.125 7.04997 0.125 7.49997V8.24994C0.125 8.69994 0.424971 8.99991 0.874971 8.99991V9.74988C0.424971 9.74988 0.125 10.0499 0.125 10.4999V11.25C0.125 11.7 0.424971 12 0.874971 12V12.7499C0.424971 12.7499 0.125 13.0499 0.125 13.4999V14.2499C0.125 14.6999 0.424971 14.9999 0.874971 14.9999V38.9999V41.9999C0.874971 43.6498 2.22497 44.9998 3.87494 44.9998H23.375C25.0249 44.9998 26.3749 43.6498 26.3749 41.9999V38.9999V33.75H39.8749C41.5249 33.75 42.8749 32.4 42.8749 30.75V18.75V14.25V12.7499C42.875 11.1 41.525 9.74997 39.875 9.74997ZM39.875 11.25C40.7001 11.25 41.3751 11.925 41.3751 12.75V13.5H12.1251V12.75C12.1251 11.925 12.8001 11.25 13.6251 11.25H26.3751H39.875ZM41.375 18H12.125V15H41.375V18ZM2.375 2.99997C2.375 2.17494 3.05 1.49994 3.87503 1.49994H23.3751C24.2001 1.49994 24.8751 2.17494 24.8751 2.99997V4.5H2.37509V2.99997H2.375ZM2.375 42V39.0001H11.6472C11.0217 39.5509 10.625 40.3562 10.625 41.2501C10.625 42.1439 11.0218 42.9492 11.6472 43.5001H3.87503C3.05 43.5 2.375 42.825 2.375 42ZM13.625 42.75C12.8 42.75 12.125 42.075 12.125 41.25C12.125 40.4249 12.8 39.7499 13.625 39.7499C14.45 39.7499 15.125 40.4249 15.125 41.25C15.125 42.075 14.45 42.75 13.625 42.75ZM24.875 42C24.875 42.8251 24.2 43.5001 23.375 43.5001H15.6028C16.2283 42.9492 16.625 42.1439 16.625 41.2501C16.625 40.3562 16.2282 39.5509 15.6028 39.0001H24.875V42ZM24.875 37.5H2.375V6.00003H24.875V9.75006H13.625C11.975 9.75006 10.625 11.1001 10.625 12.75V14.2501V18.7501V30.75C10.625 32.4 11.975 33.75 13.625 33.75H24.875V37.5ZM39.875 32.25H26.375H13.625C12.8 32.25 12.125 31.575 12.125 30.7499V19.4999H41.375V30.7499C41.375 31.575 40.7 32.25 39.875 32.25Z" fill="#E20E17"/>
<path d="M39.1249 24H29.375C28.925 24 28.625 24.3 28.625 24.75V29.9999C28.625 30.4499 28.925 30.7499 29.375 30.7499H39.1249C39.5749 30.7499 39.8749 30.4499 39.8749 29.9999V24.75C39.875 24.3 39.5749 24 39.1249 24ZM38.375 29.25H30.1249V25.4999H38.375V29.25Z" fill="#E20E17"/>
<path d="M14.375 23.25H18.125C18.575 23.25 18.875 22.95 18.875 22.5C18.875 22.05 18.575 21.75 18.125 21.75H14.375C13.925 21.75 13.625 22.05 13.625 22.5C13.625 22.95 13.925 23.25 14.375 23.25Z" fill="#E20E17"/>
<path d="M25.55 21.75H20.675C20.225 21.75 19.925 22.05 19.925 22.5C19.925 22.95 20.225 23.25 20.675 23.25H25.55C26 23.25 26.3 22.95 26.3 22.5C26.3 22.05 26 21.75 25.55 21.75Z" fill="#E20E17"/>
<path d="M21.8 24.75H14.375C13.925 24.75 13.625 25.05 13.625 25.5C13.625 25.95 13.925 26.2499 14.375 26.2499H21.8C22.175 26.2499 22.5499 25.95 22.5499 25.5C22.5499 25.05 22.25 24.75 21.8 24.75Z" fill="#E20E17"/>
<path d="M25.5502 24.75H24.1252C23.6752 24.75 23.3752 25.05 23.3752 25.5C23.3752 25.95 23.6752 26.2499 24.1252 26.2499H25.5502C26.0002 26.2499 26.3002 25.95 26.3002 25.5C26.3002 25.05 26.0002 24.75 25.5502 24.75Z" fill="#E20E17"/>
</svg>

<svg width="43" height="45" viewBox="0 0 43 45" fill="none" xmlns="http://www.w3.org/2000/svg"><path d="M16.625 2.25h-3.75c-.45 0-.75.3-.75.75s.3.75.75.75h3.75c.45 0 .75-.3.75-.75s-.3-.75-.75-.75zm-6 0h-.75c-.45 0-.75.3-.75.75s.3.75.75.75h.75c.45 0 .75-.3.75-.75s-.3-.75-.75-.75z" fill="#E20E17"/><path d="M39.875 9.75h-13.5V3c0-1.65-1.35-3-3-3h-19.5c-1.65 0-3 1.35-3 3v3.75c-.45 0-.75.3-.75.75v.75c0 .45.3.75.75.75v.75c-.45 0-.75.3-.75.75v.75c0 .45.3.75.75.75v.75c-.45 0-.75.3-.75.75v.75c0 .45.3.75.75.75v27c0 1.65 1.35 3 3 3h19.5c1.65 0 3-1.35 3-3v-8.25h13.5c1.65 0 3-1.35 3-3v-18c0-1.65-1.35-3-3-3zm0 1.5c.825 0 1.5.675 1.5 1.5v.75h-29.25v-.75c0-.825.675-1.5 1.5-1.5h26.25zm1.5 6.75h-29.25v-3h29.25v3zm-39-15c0-.825.675-1.5 1.5-1.5h19.5c.825 0 1.5.675 1.5 1.5v1.5h-22.5V3zm0 39v-3h9.272a2.994 2.994 0 0 0-1.022 2.25c0 .894.397 1.7 1.022 2.25H3.875c-.825 0-1.5-.675-1.5-1.5zm11.25.75c-.825 0-1.5-.675-1.5-1.5s.675-1.5 1.5-1.5 1.5.675 1.5 1.5-.675 1.5-1.5 1.5zm11.25-.75c0 .825-.675 1.5-1.5 1.5h-7.772a2.995 2.995 0 0 0 1.022-2.25c0-.894-.397-1.7-1.022-2.25h9.272v3zm0-4.5h-22.5V6h22.5v3.75h-11.25c-1.65 0-3 1.35-3 3v18c0 1.65 1.35 3 3 3h11.25v3.75zm15-5.25h-26.25c-.825 0-1.5-.675-1.5-1.5V19.5h29.25v11.25c0 .825-.675 1.5-1.5 1.5z" fill="#E20E17"/><path d="M39.125 24h-9.75c-.45 0-.75.3-.75.75V30c0 .45.3.75.75.75h9.75c.45 0 .75-.3.75-.75v-5.25c0-.45-.3-.75-.75-.75zm-.75 5.25h-8.25V25.5h8.25v3.75zm-24-6h3.75c.45 0 .75-.3.75-.75s-.3-.75-.75-.75h-3.75c-.45 0-.75.3-.75.75s.3.75.75.75zm11.175-1.5h-4.875c-.45 0-.75.3-.75.75s.3.75.75.75h4.875c.45 0 .75-.3.75-.75s-.3-.75-.75-.75zm-3.75 3h-7.425c-.45 0-.75.3-.75.75s.3.75.75.75H21.8c.375 0 .75-.3.75-.75s-.3-.75-.75-.75zm3.75 0h-1.425c-.45 0-.75.3-.75.75s.3.75.75.75h1.425c.45 0 .75-.3.75-.75s-.3-.75-.75-.75z" fill="#E20E17"/></svg>
